!!!COM:	Johannes Ockeghem
!!!CDT:	~1425-1497/02/06
!!!OTL:	Qu'es mi vida
!!!AGN:	Chanson
!!!SCT:	Ock3018
!!!SCA:	Ock3018
!!!voices:	4
**kern	**kern	**kern	**kern
*staff4	*staff3	*staff2	*staff1
*Ivox	*Ivox	*Ivox	*Ivox
*I"Contrabassus	*I"Tenor	*I"Contra	*I"Discantus
*I'C	*I'T	*I'C	*I'D
*>[A,B]	*>[A,B]	*>[A,B]	*>[A,B]
*>A	*>A	*>A	*>A
*clefF4	*clefF4	*clefGv2	*clefG2
*k[]	*k[]	*k[]	*k[]
*M3/1	*M3/1	*M3/1	*M3/1
*met(O)	*met(O)	*met(O)	*met(O)
!!incipit: 4
=1-	=1-	=1-	=1-
!	!	!	!LO:TX:Z=36:t=Form&colon; virelai
!	!	!	!LO:TX:Z=12:t=D and T by Cornago
1r	0.r	1r	0.r
1r	.	1r	.
1DD	.	1D	.
=2	=2	=2	=2
2GG/	1r	1.D	0.r
2FF/	.	.	.
2GG/	1r	.	.
2AA/	.	2C/	.
[1DD	1D	2.D/	.
.	.	4C/	.
=3	=3	=3	=3
1DD]	2.F\	2.AA/	0.r
.	4G\	4BB/	.
2r	2A\	2C/	.
2DD/	4G\	1D	.
.	4F\	.	.
1AA	1E	.	.
.	.	2C/	.
=4	=4	=4	=4
0.DD	0D	0F	1r
.	.	.	1r
.	1F	1A	1a
=5	=5	=5	=5
1r	1.F	1.c	1.a
1r	.	.	.
.	2E\	2G/	2g/
1D	2.F\	2A/	2f/
.	.	2B\	4e/
.	4E\	.	4d/
=6	=6	=6	=6
2r	1C	0A	2e/
2AA/	.	.	4d/
.	.	.	4e/
1D	2D\	.	2f/
.	2F\	.	1d
1AA	1E	1A	.
.	.	.	2c#i/
=7	=7	=7	=7
2FF/	0.D	2A/	1d
2GG/	.	1G	.
2.BB-/	.	.	1r
.	.	2A/	.
4C/	.	.	.
1D	.	1B	1f
=8	=8	=8	=8
1.C	1G	1.c	1e
.	1.G	.	0g
2BB/	.	2d\	.
1GG	.	[1B	.
.	2G\	.	.
=9	=9	=9	=9
2r	1.G	2B\]	1.e
1C	.	1c	.
1C	2G\	2G/	2e/
.	1G	1c	1e
2C/	.	.	.
=10	=10	=10	=10
0FF	[0.F	2r	0.A
.	.	1C	.
.	.	2C/	.
2.FF/	.	1C	.
4GG/	.	.	.
=11	=11	=11	=11
2AA/	0.F]	2C/	1r
1BB-i	.	1D	.
.	.	.	1r
2GG/	.	2BB-/	.
1FF	.	2.F/	2a/
.	.	.	2a/
.	.	4E/	.
=12	=12	=12	=12
1FF	1r	1C	1a
0C	1r	0E	0g
.	1G	.	.
=13	=13	=13	=13
1r	2.A\	1D	2.f/
.	4B\	.	4d/
2.C/	1c	2.G/	2.e/
4BB/	.	4C/	4f/
2GG/	2B\	2E/	2g/
2FF/	2c\	[2F/	[2a/
=14	=14	=14	=14
2r	1d	1F]	4a/]
.	.	.	4g/
2DD/	.	.	4f/
.	.	.	4e/
1GG	1B	2.G/	1d
.	.	4E/	.
1AA	[1A	1E	1c
=15	=15	=15	=15
1D	1A]	1F	2r
.	.	.	2f/
1C	1c	1.G	2e/
.	.	.	1g
2E\	2B\	.	.
[2F\	2A\	2F/	[2a/
=16	=16	=16	=16
2F\]	1d	1D	2a/]
2BB-i/	.	.	2b-\
1F	2c\	2r	4a/
.	.	.	4g/
.	2A\	2F/	2.f/
2C/	1G	2G/	.
.	.	.	4e/
2r	.	2B-i\	4e/
.	.	.	4d/
=17	=17	=17	=17
0FF	0F	0A	1.f
.	.	.	2e/
1GG	1B-	2r	1d
.	.	2G/	.
=18	=18	=18	=18
2.AA/	0.A	1E	1c
4BB/	.	.	.
2C/	.	2E/	1r
1D	.	1F	.
.	.	.	1f
2AA/	.	2C/	.
=19	=19	=19	=19
1BB-	1r	1D	1g
1AA	1r	1E	1.a
2FF/	2A\	2F/	.
2GG/	2B\	2D/	2g/
=20	=20	=20	=20
2AA/	1.c	1C	2.e/
1C	.	.	.
.	.	.	4f/
.	.	2E/	1.g
2GG/	2B\	1D	.
2BB-i/	2G\	.	.
2AA/	[2A\	[2A/	[2f/
=21	=21	=21	=21
2D\	4A\]	4A/]	4f/]
.	4F\	4B\	4d/
1C	1G	1c	2.e/
.	.	.	4d/
2BB-i/	2D\	2G/	1d
1AA	1E	1A	.
.	.	.	2c#i/
=22	=22	=22	=22
2r	2D\	2F/	1d
1BB-i	2F\	1D	.
.	2G\	.	2r
2AA/	2A\	2C/	2f/
2GG/	2B\	2E/	2g/
2FF/	[2c\	2F/	[2a/
=23	=23	=23	=23
1C	2c\]	1E	4a/]
.	.	.	4g/
.	2.A\	.	1cc
2r	.	2F/	.
.	4F\	.	.
2GG/	2G\	1.D	2b\
2D\	2.F\	.	2.a/
2BB/	.	.	.
.	4G\	.	4g/
=24	=24	=24	=24
2AA/	2A\	2C/	2f/
1C	1G	1E	4e/
.	.	.	2g/
.	.	.	4f/
2FF/	2F\	2AA/	2d/
2GG/	1E	2BB/	2e/
2AA/	.	2C/	2c#i/
=25	=25	=25	=25
0.DDl	0.Dl	0.AAl	0.dl
!!LO:LB:i:g=z
=26||	=26||	=26||	=26||
*>B	*>B	*>B	*>B
*clefF4	*clefF4	*clefGv2	*clefG2
*k[]	*k[]	*k[]	*k[]
*M3/1	*M3/1	*M3/1	*M3/1
*met(O)	*met(O)	*met(O)	*met(O)
!!section: Quien vos pudiera servir
!!!OMD: &iquest;Quien vos pudiera servir
1r	0.r	1r	0.r
1r	.	1r	.
1D	.	1F	.
=27	=27	=27	=27
1C	1r	2G/	0.r
.	.	1E	.
1AA	1r	.	.
.	.	2.A/	.
1BB	1d	.	.
.	.	4F/	.
.	.	2G/	.
=28	=28	=28	=28
0AA	1c	1A	1r
.	1A	2E/	1r
.	.	2F/	.
1GG	1B	1G	1d
=29	=29	=29	=29
1AA	0A	1E	1c
1r	.	1F	1A
1r	1G	1E	1B
=30	=30	=30	=30
0AA	1.c	0.E	0A
.	2A\	.	.
1EE	1B	.	1G
=31	=31	=31	=31
1AA	1A	1E	1c
2BB/	2d\	2D/	2B/
1C	2c\	1E	1A
.	1A	.	.
2FF/	.	2F/	2c/
=32	=32	=32	=32
1BB-	1F	1D	2d/
.	.	.	1f
2AA/	2A\	1C	.
2.C/	1G	.	2e/
.	.	2E/	1g
4BB-/	.	.	.
2GG/	2B-i\	2D/	.
=33	=33	=33	=33
2AA/	2A\	1C	2f/
2C/	2G\	.	2.e/
1D	2F\	2r	.
.	.	.	4d/
.	2D\	2F/	1d
1AA	1E	1A	.
.	.	.	2c#i/
=34	=34	=34	=34
0DD	0.D	0A	0.d
[1D	.	2A/	.
.	.	[2B-i\	.
=35	=35	=35	=35
1D]	1d	2B-\]	1r
.	.	2A/	.
2BB-/	0d	1B-i	1r
2C/	.	.	.
1D	.	[1A	1f
=36	=36	=36	=36
1AA	1c	1A]	1e
0EE	1B	2r	2g/
.	.	2G/	2g/
.	1B	1E	2g/
.	.	.	2g/
=37	=37	=37	=37
1FF	1A	1C	2.a/
.	.	.	4g/
1DD	1r	1D	2f/
.	.	.	2d/
2r	1c#i	1AA	1e
2AA/	.	.	.
=38	=38	=38	=38
0DD	0d	2r	1d
.	.	2A/	.
.	.	1A	2r
.	.	.	2f/
2EE/	2B\	2G/	2g/
[2FF/	2A\	[2F/	[2a/
=39	=39	=39	=39
4FF/]	1c	4F/]	4a/]
4GG/	.	4D/	4b\
2AA/	.	2C/	2cc\
1GG	2G\	2E/	2b\
.	2B\	2G/	1g
2r	1A	1D	.
2DD/	.	.	2f#i/
=40	=40	=40	=40
1GG	1G	1D	1.g
1FF	0c	1F	.
.	.	.	2a/
2EE/	.	2G/	2g/
[2FF/	.	2F/	[2cc\
=41	=41	=41	=41
2FF/]	2A\	2A/	4cc\]
.	.	.	4a/
2GG/	2G\	2D/	2b\
2FF/	2A\	2r	2cc\
2AA/	2c\	1E	1a
1EE	1B	.	.
.	.	2E/	2g#i/
=42	=42	=42	=42
1FF	1A	1C	1.a
0DD	1.d	1D	.
.	.	.	2g/
.	.	[1AA	2f/
.	2c\	.	4e/
.	.	.	4d/
=43	=43	=43	=43
1.FF	1.A	2AA/]	1c
.	.	1C	.
.	.	.	2f/
2EE/	2G\	2E/	2g/
2FF/	2F\	2AA/	2a/
2GG/	4E\	2r	4g/
.	4D\	.	4f/
=44	=44	=44	=44
2AA/	2C/	1A	2e/
1DD	1D	.	2.f/
.	.	2AA/	.
.	.	.	4e/
2DD/	2F\	2D/	4d/
.	.	.	8c/L
.	.	.	8d/J
1AA	1E	2C/	2e/
.	.	2AA/	4c#i/
.	.	.	4B/
=45	=45	=45	=45
0.DDl	0.Dl	1BB-i	0.dl
.	.	0AAl	.
==	==	==	==
*-	*-	*-	*-
!!!RDF**kern: l=long note in original notation
!!!RDF**kern: i=editorial accidental
!!!RDF**kern: V=start of tuplet marker
!!!RDF**kern: Z=end of tuplet marker
!!!ENC:	Chris Gage 06-25-2012
!!!END:	2012/08/16/
!!!EED:	Jesse Rodin
!!!EEV:	2012/08/16/
!!!ONB:	Translated from MusicXML and edited on 2012/08/16/ by Craig Sapp
!!muse2ps: C^@{COM}^i2I150v85,100,85,150Q16
